icons/booklet-line.svg

<svg viewBox="0 0 24 24" fill="currentColor" xmlns="http://www.w3.org/2000/svg"><path d="M20.0049 2C21.1068 2 22 2.89821 22 3.9908V20.0092C22 21.1087 21.1074 22 20.0049 22H4V18H2V16H4V13H2V11H4V8H2V6H4V2H20.0049ZM8 4H6V20H8V4ZM20 4H10V20H20V4Z"/></svg>

<svg xmlns="http://www.w3.org/2000/svg" viewBox="0 0 24 24">
    <g>
        <path fill="none" d="M0 0h24v24H0z"/>
        <path d="M20.005 2C21.107 2 22 2.898 22 3.99v16.02c0 1.099-.893 1.99-1.995 1.99H4v-4H2v-2h2v-3H2v-2h2V8H2V6h2V2h16.005zM8 4H6v16h2V4zm12 0H10v16h10V4z"/>
    </g>
</svg>
